dist/img/catalog/chars/lightning.svg

<svg width="18" height="19" viewBox="0 0 18 19" fill="none" xmlns="http://www.w3.org/2000/svg">
<path d="M3.81127 11.3094H8.23101C8.39823 11.3094 8.48951 11.4743 8.41879 11.6482L6.13379 17.26C6.01383 17.5543 6.33962 17.7279 6.55536 17.4846L15.2103 7.71956C15.3734 7.53548 15.3018 7.27664 15.0876 7.27664H9.587C9.38677 7.27664 9.30667 7.04663 9.44233 6.861L13.1284 1.81554C13.2641 1.62991 13.184 1.3999 12.9837 1.3999H7.73493C7.61227 1.3999 7.48816 1.4906 7.43603 1.61819L3.62384 10.971C3.55295 11.145 3.64423 11.3098 3.81145 11.3098L3.81127 11.3094Z" fill="black"/>
</svg>

<svg width="18" height="19" viewBox="0 0 18 19" fill="none" xmlns="http://www.w3.org/2000/svg"><path d="M3.811 11.31h4.42c.167 0 .259.164.188.338L6.134 17.26c-.12.294.206.468.421.225L15.21 7.72c.163-.185.092-.443-.122-.443H9.587c-.2 0-.28-.23-.145-.416l3.686-5.045c.136-.186.056-.416-.144-.416h-5.25c-.122 0-.246.09-.298.218l-3.812 9.353c-.071.174.02.339.187.339z" fill="#000"/></svg>
